!!!SOCIAL_FUNCTION:	songs of the buffalo hunt
!!!PDT:	1918

Specific Region: Dakotas, Minnesota, Montana, Nebraska
!!!REG: Dakotas and Montana
!!!LING_GROUP: Siouan
!!!LANG: Tone
!!!OTL@ENG: Song of the Buffalo Hunt (a)
!!!ONM: No. 180
**kern
*Imale
*clefF4
*k[b-e-a-]
*M3/4
*>[A,A]
*>norep[A]
*>A
=1!|:
*MM92
16e-
16c
[8c
4c]
8c
8e-
=2||
*M2/4
8.e-
16c
4c
=3
16c
8.c
4c
=4||
*M3/4
16e-
16c
[8c
4c]
8c
8c
=5||
*M2/4
8B-
8G
4B-
=6
4G
8G
8G
=7||
*M3/4
8c
8B-
2c
=8||
*M2/4
16B-
16B-
8B-
16B-
8.G
=9
8.B-
16G
4G
==:|!
*-
!!!CNT: Native American -- Sioux
!!!MRD: 1911/07//-1914///
!!!OCL: Frances Densmore
!!!YOR1: Teton Sioux Music, Bulletin 61,
!!!YOR2: Bureau of American Ethnology, Smithsonian Institution
!!!PPR: Government Printing Office
!!!PPP: Washington, D.C.
!!!PDT: 1918///
!!!ENC: Craig Stuart Sapp
!!!END: 2002/03/25/
!!!EEV: 2002/03/31/
!!!AGN: Buffalo Hunt Song
!!!MPN@@SIO: Shiya'ka
!!!MPN@ENG: Teal Duck
!!!TXO: Teton Sioux
!!!MLC: Standing Rock Reservation, South Dakota, United States of America
!!!ARL: 45.9/-100.7#
!!!catalog: Catalogue No. 475
!!!PPG: 417
!!!EFL: 185/245
!!!VTS: 286502813
